X:5
K:C
L:1/8
T:V.Rak\'ut (Tenderness)
M:4/4
Q:"Simplice" 1/4=76
Z2 | !p! C8- | C8- | /|/| /| (C3D _B,3A, | C8-) | C4 z4|
C8- | C6 "esp."(GA | _BB c!mordent!B A!mordent!G ^FE) | 
G4G4 | C4G4 | C4 G2GA | _BB e!mordent!d B!mordent!A G=F | G4 [Q:"rit."]!crescendo(!F4!crescendo)! | [Q:"A tempo"]!mf! !diminuendo(!E4D4 !diminuendo)!| 
!p! D2 !crescendo(! ((DE)(^FA)(de)) !crescendo)!| "su\b."!mp!(=f3f e3c | (cB)d6) | e3^fg4 | 
!diminuendo(!a8 !diminuendo)! | z4 G4- | G2 z2 A,2D2 | CB,D6- | !diminuendo(! D8 !diminuendo)! | 
z2A2E2C2 | A,2D2A4 | z4A4- | A4z4 | Z | [M:6/8]Z| !fermata!Z|]